X:1
T: Fu' as a Puggy
C:Muriel A Johnstone
R:Reel
Q: 232
K:Am
M:4/4
L:1/8
|:E2|A3B c2 BA|^GB e2 e3d|ce ae fe dc|B2 E2 E3E|
AE AB c2 BA|^GB ed cA ce|a3f ed cB|c2 A2 A2 G2|
c3g ec GE|D2 G,2 G,2 A,B,|C3e cA EC|B,2 E2 E3D|
CE AE DF BA|^GB ed cA ce|a3f ed cB|c2 A2 A2:|
